;Generated by Cura 2 GCodeWriter Version: 2.6.25
;FLAVOR:RepRap
;TIME:2614
;Filament used: 1.20116m
;Layer height: 0.25
;Generated with Cura_SteamEngine 2.6.25
;This G-Code has been generated specifically for the LulzBot Mini with standard extruder
G26                                ; clear potential 'probe fail' condition
G21                                ; set units to Millimetres
M107                               ; disable fans
G90                                ; absolute positioning
M82                                ; set extruder to absolute mode
G92 E0                             ; set extruder position to 0
M140 S50   ; start bed heating up
G28                                ; home all axes
M109 R180  ; wait for extruder to reach wiping temp
G1 Z150 E-15 F75                   ; retract filament
G1 X45 Y174 F11520                 ; move above wiper pad
G1 Z0  F1200                       ; push nozzle into wiper
G1 X45 Y174 Z-.5 F4000             ; wiping
G1 X55 Y172 Z-.5 F4000             ; wiping
G1 X45 Y174 Z0 F4000               ; wiping
G1 X55 Y172 F4000                  ; wiping
G1 X45 Y174 F4000                  ; wiping
G1 X55 Y172 F4000                  ; wiping
G1 X45 Y174 F4000                  ; wiping
G1 X55 Y172 F4000                  ; wiping
G1 X60 Y174 F4000                  ; wiping
G1 X80 Y172 F4000                  ; wiping
G1 X60 Y174 F4000                  ; wiping
G1 X80 Y172 F4000                  ; wiping
G1 X60 Y174 F4000                  ; wiping
G1 X90 Y172 F4000                  ; wiping
G1 X80 Y174 F4000                  ; wiping
G1 X100 Y172 F4000                 ; wiping
G1 X80 Y174 F4000                  ; wiping
G1 X100 Y172 F4000                 ; wiping
G1 X80 Y174 F4000                  ; wiping
G1 X100 Y172 F4000                 ; wiping
G1 X110 Y174 F4000                 ; wiping
G1 X100 Y172 F4000                 ; wiping
G1 X110 Y174 F4000                 ; wiping
G1 X100 Y172 F4000                 ; wiping
G1 X110 Y174 F4000                 ; wiping
G1 X115 Y172 Z-0.5 F1000           ; wiping
G1 Z10                             ; raise extruder
G28 X0 Y0                          ; home X and Y
M109 R180 ; wait for extruder to reach probe temp
M204 S300                          ; set probing acceleration
M18 E; Turn extrudre off
G29                                ; start auto-leveling sequence
G92 E-15;
M204 S2000                         ; restore standard acceleration
G1 X5 Y15 Z10 F5000                ; move up off last probe point
G4 S1                              ; pause
M400                               ; wait for moves to finish
M117 Heating...                    ; progress indicator message on LCD
M109 R235 ; wait for extruder to reach printing temp
M190 S50   ; wait for bed to reach printing temp
G1 Z2 E0 F75                       ; prime tiny bit of filment into the nozzle
M117 Mini Printing...              ; progress indicator message on LCD

G92 E800.10107
;LAYER_COUNT:35
;LAYER:0
G0 F6300 X3.111 Y125.035 Z0.5
;TYPE:WALL-OUTER
G1 F240 E802.10107
G1 F900 X17.522 Y125.037 E802.8617
G1 X18.43 Y125.069 E802.90965
G1 X19.298 Y125.156 E802.9557
G1 X20.188 Y125.301 E803.00329
G1 X21.051 Y125.498 E803.05001
G1 X21.913 Y125.753 E803.09746
G1 X22.734 Y126.053 E803.14359
G1 X23.564 Y126.417 E803.19143
G1 X24.351 Y126.822 E803.23815
G1 X25.115 Y127.279 E803.28513
G1 X25.852 Y127.785 E803.33232
G1 X26.546 Y128.329 E803.37886
G1 X27.212 Y128.922 E803.42593
G1 X27.841 Y129.556 E803.47307
G1 X28.428 Y130.228 E803.52016
G1 X28.963 Y130.925 E803.56654
G1 X29.472 Y131.681 E803.61464
G1 X29.912 Y132.432 E803.66058
G1 X30.294 Y133.183 E803.70505
G1 X30.64 Y133.982 E803.75101
G1 X30.949 Y134.839 E803.79909
G1 X31.195 Y135.687 E803.8457
G1 X31.387 Y136.544 E803.89205
G1 X31.526 Y137.423 E803.93902
G1 X31.612 Y138.33 E803.98711
G1 X31.639 Y139.21 E804.03358
G1 X31.612 Y140.089 E804.08
G1 X31.526 Y140.994 E804.12798
G1 X31.388 Y141.869 E804.17473
G1 X31.195 Y142.733 E804.22146
G1 X30.949 Y143.58 E804.26801
G1 X30.641 Y144.434 E804.31593
G1 X30.294 Y145.236 E804.36205
G1 X29.891 Y146.029 E804.409
G1 X29.431 Y146.807 E804.45671
G1 X28.929 Y147.545 E804.50382
G1 X28.388 Y148.243 E804.55043
G1 X27.798 Y148.913 E804.59755
G1 X27.167 Y149.543 E804.64461
G1 X26.498 Y150.133 E804.69169
G1 X25.8 Y150.674 E804.7383
G1 X25.062 Y151.176 E804.78541
G1 X24.294 Y151.63 E804.8325
G1 X23.49 Y152.04 E804.88014
G1 X22.692 Y152.385 E804.92602
G1 X21.842 Y152.692 E804.97372
G1 X20.988 Y152.94 E805.02066
G1 X20.124 Y153.133 E805.06739
G1 X19.249 Y153.271 E805.11414
G1 X18.349 Y153.357 E805.16186
G1 X17.455 Y153.385 E805.20907
G1 X2.79 Y153.385 E805.9831
G1 X2.786 Y125.36 E807.46229
G1 X2.786 Y125.035 E807.47944
G1 X3.111 Y125.035 E807.49054
G0 F6300 X3.411 Y125.035
G0 X3.411 Y125.135
G0 X15.336 Y137.06
G0 X15.405 Y137.132
G1 F900 X15.273 Y137.272 E807.5007
G1 X15.154 Y137.416 E807.51056
G1 X15.043 Y137.569 E807.52053
G1 X14.944 Y137.727 E807.53037
G1 X14.854 Y137.89 E807.5402
G1 X14.775 Y138.06 E807.5501
G1 X14.706 Y138.236 E807.56007
G1 X14.65 Y138.415 E807.56997
G1 X14.605 Y138.598 E807.57992
G1 X14.572 Y138.782 E807.58979
G1 X14.551 Y138.967 E807.59961
G1 X14.541 Y139.153 E807.60944
G1 X14.542 Y139.341 E807.61937
G1 X14.556 Y139.534 E807.62958
G1 X14.62 Y139.894 E807.64888
G1 X14.672 Y140.083 E807.65923
G1 X14.802 Y140.424 E807.67849
G1 X14.889 Y140.597 E807.68871
G1 X14.983 Y140.759 E807.6986
G1 X15.087 Y140.915 E807.70849
G1 X15.202 Y141.064 E807.71843
G1 X15.325 Y141.204 E807.72826
G1 X15.458 Y141.337 E807.73819
G1 X15.598 Y141.461 E807.74806
G1 X15.746 Y141.576 E807.75795
G1 X15.901 Y141.682 E807.76786
G1 X16.064 Y141.777 E807.77782
G1 X16.229 Y141.861 E807.78759
G1 X16.403 Y141.935 E807.79757
G1 X16.58 Y141.997 E807.80747
G1 X16.76 Y142.048 E807.81735
G1 X16.943 Y142.087 E807.82722
G1 X17.128 Y142.114 E807.83709
G1 X17.32 Y142.131 E807.84726
G1 X17.685 Y142.127 E807.86653
G1 X17.881 Y142.107 E807.87693
G1 X18.244 Y142.031 E807.8965
G1 X18.593 Y141.909 E807.91602
G1 X18.768 Y141.829 E807.92617
G1 X18.934 Y141.739 E807.93614
G1 X19.093 Y141.64 E807.94603
G1 X19.249 Y141.528 E807.95616
G1 X19.523 Y141.288 E807.97539
G1 X19.656 Y141.148 E807.98558
G1 X19.775 Y141.003 E807.99548
G1 X19.885 Y140.851 E808.00538
G1 X19.985 Y140.693 E808.01525
G1 X20.075 Y140.529 E808.02513
G1 X20.154 Y140.359 E808.03502
G1 X20.223 Y140.183 E808.045
G1 X20.279 Y140.004 E808.0549
G1 X20.324 Y139.821 E808.06485
G1 X20.357 Y139.637 E808.07471
G1 X20.378 Y139.452 E808.08454
G1 X20.388 Y139.266 E808.09437
G1 X20.387 Y139.079 E808.10424
G1 X20.373 Y138.886 E808.11445
G1 X20.309 Y138.527 E808.1337
G1 X20.257 Y138.336 E808.14415
G1 X20.127 Y137.995 E808.16341
G1 X20.04 Y137.822 E808.17363
G1 X19.946 Y137.66 E808.18352
G1 X19.842 Y137.504 E808.19341
G1 X19.727 Y137.355 E808.20335
G1 X19.604 Y137.215 E808.21318
G1 X19.471 Y137.082 E808.22311
G1 X19.331 Y136.958 E808.23298
G1 X19.183 Y136.843 E808.24288
G1 X19.028 Y136.737 E808.25279
G1 X18.865 Y136.642 E808.26274
G1 X18.7 Y136.558 E808.27252
G1 X18.526 Y136.484 E808.2825
G1 X18.349 Y136.422 E808.2924
G1 X18.169 Y136.371 E808.30227
G1 X17.986 Y136.332 E808.31215
G1 X17.8 Y136.305 E808.32207
G1 X17.614 Y136.289 E808.33192
G1 X17.427 Y136.285 E808.34179
G1 X17.239 Y136.293 E808.35172
G1 X17.047 Y136.314 E808.36192
G1 X16.685 Y136.389 E808.38143
G1 X16.331 Y136.513 E808.40123
G1 X15.995 Y136.679 E808.42101
G1 X15.684 Y136.888 E808.44079
G1 X15.405 Y137.132 E808.46035
G0 F6300 X15.273 Y137.272
G0 X15.204 Y137.355
G0 X15.127 Y137.292
G0 X15.975 Y136.645
G0 X22.308 Y133.102
G0 X22.399 Y133.063
G1 F900 X22.696 Y133.565 E808.49114
G1 X23.109 Y133.978 E808.52196
G1 X23.611 Y134.275 E808.55275
G1 X24.172 Y134.438 E808.58358
G1 X24.755 Y134.456 E808.61437
G1 X25.324 Y134.328 E808.64515
G1 X25.844 Y134.064 E808.67593
G1 X26.282 Y133.678 E808.70675
G1 X26.61 Y133.196 E808.73752
G1 X26.807 Y132.646 E808.76836
G1 X26.862 Y132.066 E808.79911
G1 X26.771 Y131.49 E808.82988
G1 X26.539 Y130.953 E808.86076
G1 X26.182 Y130.492 E808.89153
G1 X25.721 Y130.135 E808.92231
G1 X25.185 Y129.903 E808.95314
G1 X24.608 Y129.813 E808.98396
G1 X24.027 Y129.867 E809.01476
G1 X23.479 Y130.065 E809.04551
G1 X22.997 Y130.392 E809.07625
G1 X22.61 Y130.83 E809.1071
G1 X22.346 Y131.35 E809.13788
G1 X22.218 Y131.919 E809.16867
G1 X22.236 Y132.502 E809.19945
G1 X22.399 Y133.063 E809.23029
G0 F6300 X22.551 Y133.321
G0 X22.465 Y133.37
G0 X24.006 Y143.912
G0 X24.027 Y144.009
G1 F900 X23.479 Y144.207 E809.26104
G1 X22.996 Y144.534 E809.29183
G1 X22.61 Y144.973 E809.32268
G1 X22.346 Y145.492 E809.35342
G1 X22.218 Y146.061 E809.3842
G1 X22.236 Y146.645 E809.41504
G1 X22.399 Y147.205 E809.44582
G1 X22.696 Y147.708 E809.47665
G1 X23.109 Y148.12 E809.50744
G1 X23.611 Y148.417 E809.53823
G1 X24.172 Y148.58 E809.56906
G1 X24.755 Y148.598 E809.59985
G1 X25.324 Y148.47 E809.63063
G1 X25.844 Y148.206 E809.66141
G1 X26.282 Y147.82 E809.69223
G1 X26.61 Y147.338 E809.723
G1 X26.807 Y146.788 E809.75384
G1 X26.862 Y146.208 E809.78459
G1 X26.771 Y145.631 E809.81542
G1 X26.539 Y145.096 E809.84619
G1 X26.182 Y144.634 E809.87701
G1 X25.721 Y144.277 E809.90779
G1 X25.185 Y144.045 E809.93861
G1 X24.608 Y143.955 E809.96944
G1 X24.027 Y144.009 E810.00023
G0 F6300 X23.745 Y144.111
G0 X23.885 Y143.369
;TYPE:SKIN
G1 F900 X23.181 Y143.623 E810.03974
G1 X22.562 Y144.042 E810.07919
G1 X22.068 Y144.605 E810.11872
G1 X21.73 Y145.27 E810.1581
G1 X21.566 Y145.999 E810.19753
G1 X21.588 Y146.747 E810.23703
G1 X21.797 Y147.465 E810.2765
G1 X22.178 Y148.11 E810.31604
G1 X22.707 Y148.638 E810.35549
G1 X23.351 Y149.019 E810.39498
G1 X24.07 Y149.228 E810.4345
G1 X24.817 Y149.25 E810.47395
G1 X25.546 Y149.086 E810.51339
G1 X26.212 Y148.748 E810.55281
G1 X26.774 Y148.254 E810.5923
G1 X27.194 Y147.636 E810.63174
G1 X27.447 Y146.93 E810.67132
G1 X27.516 Y146.188 E810.71066
G1 X27.401 Y145.449 E810.75013
G1 X27.103 Y144.762 E810.78966
G1 X26.646 Y144.17 E810.82913
G1 X26.055 Y143.713 E810.86856
G1 X25.367 Y143.415 E810.90813
G1 X24.628 Y143.301 E810.9476
G1 X23.885 Y143.369 E810.98698
G0 F6300 X23.743 Y142.729
G1 F900 X22.884 Y143.039 E811.03518
G1 X22.128 Y143.551 E811.08337
G1 X21.526 Y144.238 E811.13159
G1 X21.114 Y145.048 E811.17955
G1 X20.914 Y145.936 E811.22759
G1 X20.941 Y146.849 E811.2758
G1 X21.196 Y147.725 E811.32396
G1 X21.66 Y148.512 E811.37218
G1 X22.306 Y149.156 E811.42033
G1 X23.091 Y149.62 E811.46846
G1 X23.968 Y149.875 E811.51666
G1 X24.633 Y149.895 E811.55178
G1 X24.349 Y150.087 E811.56987
G1 X23.687 Y150.479 E811.61048
G1 X22.925 Y150.868 E811.65563
G1 X22.222 Y151.172 E811.69606
G1 X21.429 Y151.459 E811.74057
G1 X20.672 Y151.679 E811.78218
G1 X19.878 Y151.856 E811.82512
G1 X19.102 Y151.978 E811.86658
G1 X18.261 Y152.058 E811.91117
G1 X17.415 Y152.085 E811.95584
G1 X4.09 Y152.085 E812.65915
G1 X4.086 Y126.335 E814.01826
G1 X17.477 Y126.337 E814.72505
G1 X18.362 Y126.368 E814.77179
G1 X19.12 Y126.444 E814.812
G1 X19.932 Y126.577 E814.85543
G1 X20.724 Y126.757 E814.8983
G1 X21.509 Y126.989 E814.9415
G1 X22.241 Y127.257 E814.98264
G1 X23.009 Y127.593 E815.02689
G1 X23.713 Y127.955 E815.06867
G1 X24.416 Y128.376 E815.11192
G1 X24.608 Y128.508 E815.12422
G1 X23.743 Y128.587 E815.17007
G1 X22.883 Y128.897 E815.21832
G1 X22.132 Y129.408 E815.26626
G1 X21.526 Y130.094 E815.31457
G1 X21.114 Y130.906 E815.36263
G1 X20.914 Y131.794 E815.41068
G1 X20.941 Y132.706 E815.45883
G1 X21.196 Y133.583 E815.50704
G1 X21.66 Y134.369 E815.55521
G1 X22.305 Y135.014 E815.60336
G1 X23.091 Y135.478 E815.65153
G1 X23.968 Y135.733 E815.69974
G1 X24.88 Y135.76 E815.7479
G1 X25.768 Y135.56 E815.79594
G1 X26.579 Y135.148 E815.84395
G1 X27.265 Y134.546 E815.89213
G1 X27.778 Y133.791 E815.9403
G1 X28.087 Y132.93 E815.98859
G1 X28.167 Y132.072 E816.03407
G1 X28.385 Y132.396 E816.05468
G1 X28.759 Y133.033 E816.09367
G1 X29.128 Y133.759 E816.13665
G1 X29.424 Y134.442 E816.17594
G1 X29.717 Y135.255 E816.22156
G1 X29.936 Y136.011 E816.2631
G1 X30.105 Y136.763 E816.30378
G1 X30.233 Y137.57 E816.34691
G1 X30.314 Y138.426 E816.39229
G1 X30.338 Y139.21 E816.43369
G1 X30.314 Y139.991 E816.47493
G1 X30.233 Y140.848 E816.52036
G1 X30.111 Y141.623 E816.56177
G1 X29.934 Y142.417 E816.60471
G1 X29.722 Y143.149 E816.64493
G1 X29.43 Y143.959 E816.69038
G1 X29.122 Y144.673 E816.73142
G1 X28.75 Y145.404 E816.77471
G1 X28.345 Y146.091 E816.81681
G1 X28.152 Y146.375 E816.83493
G1 X28.171 Y146.168 E816.8459
G1 X28.03 Y145.267 E816.89404
G1 X27.667 Y144.429 E816.94224
G1 X27.11 Y143.707 E816.99037
G1 X26.388 Y143.149 E817.03853
G1 X25.549 Y142.785 E817.0868
G1 X24.648 Y142.646 E817.13492
G1 X23.743 Y142.729 E817.18289
G0 F6300 X23.601 Y142.089
G1 F900 X22.587 Y142.455 E817.23979
G1 X21.694 Y143.06 E817.29672
G1 X20.984 Y143.871 E817.35361
G1 X20.498 Y144.826 E817.41017
G1 X20.262 Y145.873 E817.46682
G1 X20.294 Y146.951 E817.52374
G1 X20.595 Y147.985 E817.58058
G1 X21.142 Y148.914 E817.63748
G1 X21.905 Y149.674 E817.69432
G1 X22.799 Y150.202 E817.74912
G1 X22.649 Y150.279 E817.75802
G1 X21.973 Y150.571 E817.79689
G1 X21.227 Y150.841 E817.83876
G1 X20.507 Y151.05 E817.87833
G1 X19.763 Y151.216 E817.91857
G1 X19.022 Y151.333 E817.95816
G1 X18.226 Y151.408 E818.00036
G1 X17.394 Y151.435 E818.0443
G1 X4.74 Y151.435 E818.71219
G1 X4.736 Y126.985 E820.00269
G1 X17.454 Y126.987 E820.67395
G1 X18.32 Y127.017 E820.71969
G1 X19.046 Y127.09 E820.7582
G1 X19.798 Y127.213 E820.79842
G1 X20.568 Y127.388 E820.8401
G1 X21.307 Y127.607 E820.88078
G1 X21.98 Y127.853 E820.9186
G1 X22.741 Y128.186 E820.96244
G1 X22.822 Y128.228 E820.96726
G1 X22.585 Y128.313 E820.98055
G1 X21.699 Y128.917 E821.03715
G1 X20.984 Y129.726 E821.09413
G1 X20.498 Y130.684 E821.15083
G1 X20.262 Y131.731 E821.20748
G1 X20.294 Y132.808 E821.26435
G1 X20.595 Y133.843 E821.32124
G1 X21.142 Y134.77 E821.37805
G1 X21.904 Y135.532 E821.43493
G1 X22.831 Y136.079 E821.49174
G1 X23.866 Y136.38 E821.54863
G1 X24.943 Y136.412 E821.6055
G1 X25.99 Y136.176 E821.66215
G1 X26.946 Y135.69 E821.71876
G1 X27.756 Y134.98 E821.77561
G1 X28.362 Y134.088 E821.83253
G1 X28.447 Y133.853 E821.84572
G1 X28.542 Y134.041 E821.85683
G1 X28.812 Y134.662 E821.89257
G1 X29.099 Y135.458 E821.93724
G1 X29.305 Y136.17 E821.97636
G1 X29.466 Y136.883 E822.01494
G1 X29.588 Y137.654 E822.05614
G1 X29.664 Y138.46 E822.09887
G1 X29.687 Y139.21 E822.13847
G1 X29.664 Y139.957 E822.17792
G1 X29.588 Y140.766 E822.22081
G1 X29.471 Y141.508 E822.26045
G1 X29.305 Y142.252 E822.30069
G1 X29.102 Y142.953 E822.33921
G1 X28.829 Y143.711 E822.38173
G1 X28.532 Y144.399 E822.42128
G1 X28.44 Y144.58 E822.432
G1 X28.231 Y144.096 E822.45983
G1 X27.574 Y143.244 E822.51661
G1 X26.721 Y142.585 E822.57351
G1 X25.731 Y142.155 E822.63048
G1 X24.668 Y141.991 E822.68725
G1 X23.601 Y142.089 E822.7438
G0 F6300 X23.459 Y141.449
G1 F900 X22.308 Y141.864 E822.80838
G1 X22.395 Y141.706 E822.8179
G1 X22.545 Y141.385 E822.8366
G1 X22.679 Y141.042 E822.85604
G1 X22.783 Y140.701 E822.87485
G1 X22.867 Y140.371 E822.89283
G1 X22.933 Y140.012 E822.91209
G1 X22.97 Y139.664 E822.93056
G1 X22.988 Y139.33 E822.94822
G1 X22.987 Y138.979 E822.96674
G1 X22.957 Y138.561 E822.98886
G1 X22.848 Y137.956 E823.02131
G1 X22.732 Y137.531 E823.04456
G1 X22.511 Y136.948 E823.07747
G1 X22.328 Y136.582 E823.09907
G1 X22.287 Y136.513 E823.10331
G1 X22.571 Y136.68 E823.12069
G1 X23.764 Y137.027 E823.18627
G1 X25.006 Y137.064 E823.25185
G1 X26.212 Y136.792 E823.31711
G1 X27.313 Y136.233 E823.38228
G1 X28.247 Y135.414 E823.44785
G1 X28.342 Y135.274 E823.45678
G1 X28.479 Y135.654 E823.4781
G1 X28.675 Y136.329 E823.5152
G1 X28.827 Y137.004 E823.55171
G1 X28.943 Y137.738 E823.59094
G1 X29.014 Y138.494 E823.63101
G1 X29.036 Y139.21 E823.66882
G1 X29.014 Y139.924 E823.70653
G1 X28.943 Y140.684 E823.74682
G1 X28.832 Y141.389 E823.78448
G1 X28.675 Y142.091 E823.82245
G1 X28.486 Y142.743 E823.85828
G1 X28.334 Y143.166 E823.88201
G1 X28.038 Y142.781 E823.90764
G1 X27.054 Y142.021 E823.97326
G1 X25.913 Y141.525 E824.03893
G1 X24.688 Y141.336 E824.10435
G1 X23.459 Y141.449 E824.16949
G0 F6300 X22.065 Y140.828
