;Generated by Cura 2 GCodeWriter Version: 2.6.25
;FLAVOR:RepRap
;TIME:1934
;Filament used: 0.733267m
;Layer height: 0.25
;Generated with Cura_SteamEngine 2.6.25
;This G-Code has been generated specifically for the LulzBot Mini with standard extruder
G26                                ; clear potential 'probe fail' condition
G21                                ; set units to Millimetres
M107                               ; disable fans
G90                                ; absolute positioning
M82                                ; set extruder to absolute mode
G92 E0                             ; set extruder position to 0
M140 S50   ; start bed heating up
G28                                ; home all axes
M109 R180  ; wait for extruder to reach wiping temp
G1 Z150 E-15 F75                   ; retract filament
G1 X45 Y174 F11520                 ; move above wiper pad
G1 Z0  F1200                       ; push nozzle into wiper
G1 X45 Y174 Z-.5 F4000             ; wiping
G1 X55 Y172 Z-.5 F4000             ; wiping
G1 X45 Y174 Z0 F4000               ; wiping
G1 X55 Y172 F4000                  ; wiping
G1 X45 Y174 F4000                  ; wiping
G1 X55 Y172 F4000                  ; wiping
G1 X45 Y174 F4000                  ; wiping
G1 X55 Y172 F4000                  ; wiping
G1 X60 Y174 F4000                  ; wiping
G1 X80 Y172 F4000                  ; wiping
G1 X60 Y174 F4000                  ; wiping
G1 X80 Y172 F4000                  ; wiping
G1 X60 Y174 F4000                  ; wiping
G1 X90 Y172 F4000                  ; wiping
G1 X80 Y174 F4000                  ; wiping
G1 X100 Y172 F4000                 ; wiping
G1 X80 Y174 F4000                  ; wiping
G1 X100 Y172 F4000                 ; wiping
G1 X80 Y174 F4000                  ; wiping
G1 X100 Y172 F4000                 ; wiping
G1 X110 Y174 F4000                 ; wiping
G1 X100 Y172 F4000                 ; wiping
G1 X110 Y174 F4000                 ; wiping
G1 X100 Y172 F4000                 ; wiping
G1 X110 Y174 F4000                 ; wiping
G1 X115 Y172 Z-0.5 F1000           ; wiping
G1 Z10                             ; raise extruder
G28 X0 Y0                          ; home X and Y
M109 R180 ; wait for extruder to reach probe temp
M204 S300                          ; set probing acceleration
M18 E; Turn extrudre off
G29                                ; start auto-leveling sequence
G92 E-15;
M204 S2000                         ; restore standard acceleration
G1 X5 Y15 Z10 F5000                ; move up off last probe point
G4 S1                              ; pause
M400                               ; wait for moves to finish
M117 Heating...                    ; progress indicator message on LCD
M109 R235 ; wait for extruder to reach printing temp
M190 S50   ; wait for bed to reach printing temp
G1 Z2 E0 F75                       ; prime tiny bit of filment into the nozzle
M117 Mini Printing...              ; progress indicator message on LCD

G92 E488.73741
;LAYER_COUNT:31
;LAYER:0
G0 F6300 X16.506 Y124.706
G0 F6300 Z0.5
;TYPE:WALL-OUTER
G1 F240 E490.73741
G1 F900 X16.774 Y124.673 E490.75167
G1 X17.035 Y124.666 E490.76545
G1 X17.296 Y124.686 E490.77926
G1 X17.551 Y124.73 E490.79292
G1 X17.806 Y124.801 E490.80689
G1 X18.053 Y124.896 E490.82086
G1 X18.279 Y125.01 E490.83422
G1 X18.511 Y125.156 E490.84869
G1 X18.716 Y125.316 E490.86241
G1 X18.806 Y125.397 E490.8688
G1 X28.544 Y135.139 E491.59583
G1 X28.778 Y135.411 E491.61477
G1 X29.015 Y135.73 E491.63575
G1 X29.209 Y136.036 E491.65487
G1 X29.389 Y136.37 E491.6749
G1 X29.548 Y136.728 E491.69557
G1 X29.669 Y137.061 E491.71427
G1 X29.772 Y137.425 E491.73424
G1 X29.852 Y137.819 E491.75546
G1 X29.897 Y138.17 E491.77414
G1 X29.919 Y138.571 E491.79533
G1 X29.912 Y138.933 E491.81444
G1 X29.877 Y139.314 E491.83464
G1 X29.814 Y139.691 E491.85481
G1 X29.726 Y140.057 E491.87468
G1 X29.615 Y140.403 E491.89386
G1 X29.469 Y140.767 E491.91456
G1 X29.305 Y141.1 E491.93415
G1 X29.11 Y141.433 E491.95452
G1 X28.898 Y141.74 E491.97421
G1 X28.664 Y142.033 E491.994
G1 X28.396 Y142.321 E492.01477
G1 X18.81 Y151.906 E492.73026
G1 X18.616 Y152.073 E492.74377
G1 X18.397 Y152.227 E492.7579
G1 X18.165 Y152.359 E492.77199
G1 X17.928 Y152.464 E492.78567
G1 X17.684 Y152.545 E492.79924
G1 X17.431 Y152.601 E492.81292
G1 X17.16 Y152.634 E492.82733
G1 X16.898 Y152.641 E492.84116
G1 X16.64 Y152.622 E492.85482
G1 X16.379 Y152.576 E492.86881
G1 X16.13 Y152.508 E492.88243
G1 X15.881 Y152.412 E492.89652
G1 X15.652 Y152.297 E492.91004
G1 X15.426 Y152.153 E492.92418
G1 X15.219 Y151.991 E492.93806
G1 X15.125 Y151.907 E492.94471
G1 X2.1 Y138.883 E493.91691
G1 X1.871 Y138.654 E493.934
G1 X2.1 Y138.425 E493.94503
G1 X15.124 Y125.401 E494.91719
G1 X15.318 Y125.234 E494.9307
G1 X15.536 Y125.081 E494.94476
G1 X15.765 Y124.951 E494.95866
G1 X16.004 Y124.845 E494.97246
G1 X16.254 Y124.763 E494.98635
G1 X16.506 Y124.706 E494.99998
G0 F6300 X16.774 Y124.673
G0 X16.804 Y124.673
G0 X16.806 Y124.773
G0 X21.042 Y131.259
G0 X21.092 Y131.345
G1 F900 X20.862 Y131.5 E495.01462
G1 X20.65 Y131.681 E495.02933
G1 X20.463 Y131.887 E495.04402
G1 X20.301 Y132.113 E495.0587
G1 X20.168 Y132.357 E495.07336
G1 X20.064 Y132.615 E495.08805
G1 X19.992 Y132.884 E495.10274
G1 X19.952 Y133.159 E495.11741
G1 X19.947 Y133.437 E495.13209
G1 X19.973 Y133.713 E495.14672
G1 X20.033 Y133.986 E495.16147
G1 X20.125 Y134.249 E495.17618
G1 X20.248 Y134.499 E495.19088
G1 X20.399 Y134.731 E495.20549
G1 X20.577 Y134.945 E495.22019
G1 X20.781 Y135.136 E495.23494
G1 X21.004 Y135.301 E495.24958
G1 X21.246 Y135.438 E495.26426
G1 X21.502 Y135.545 E495.2789
G1 X21.77 Y135.622 E495.29362
G1 X22.045 Y135.665 E495.30831
G1 X22.322 Y135.676 E495.32294
G1 X22.6 Y135.652 E495.33767
G1 X22.872 Y135.597 E495.35232
G1 X23.136 Y135.509 E495.367
G1 X23.388 Y135.39 E495.38171
G1 X23.623 Y135.242 E495.39637
G1 X23.84 Y135.067 E495.41108
G1 X24.033 Y134.867 E495.42575
G1 X24.201 Y134.646 E495.44041
G1 X24.342 Y134.406 E495.4551
G1 X24.454 Y134.152 E495.46975
G1 X24.534 Y133.885 E495.48446
G1 X24.582 Y133.61 E495.4992
G1 X24.596 Y133.333 E495.51384
G1 X24.577 Y133.056 E495.52849
G1 X24.526 Y132.782 E495.5432
G1 X24.441 Y132.517 E495.55789
G1 X24.326 Y132.264 E495.57256
G1 X24.182 Y132.027 E495.58719
G1 X24.011 Y131.807 E495.6019
G1 X23.812 Y131.61 E495.61668
G1 X23.595 Y131.44 E495.63123
G1 X23.358 Y131.294 E495.64592
G1 X23.104 Y131.179 E495.66064
G1 X22.843 Y131.097 E495.67508
G1 X22.698 Y131.064 E495.68293
G1 X22.427 Y131.03 E495.69734
G1 X22.149 Y131.028 E495.71202
G1 X21.872 Y131.059 E495.72673
G1 X21.602 Y131.123 E495.74137
G1 X21.34 Y131.219 E495.7561
G1 X21.092 Y131.345 E495.77078
G0 F6300 X20.862 Y131.5
G0 X20.845 Y131.514
G0 X20.781 Y131.438
G0 X20.132 Y132.34
G0 X19.302 Y134.778
G0 X19.251 Y134.863
G1 F900 X18.925 Y134.686 E495.79036
G1 X18.586 Y134.536 E495.80993
G1 X18.236 Y134.415 E495.82948
G1 X17.876 Y134.325 E495.84906
G1 X17.511 Y134.263 E495.8686
G1 X17.143 Y134.233 E495.88809
G1 X16.771 Y134.232 E495.90773
G1 X16.402 Y134.264 E495.92727
G1 X16.037 Y134.327 E495.94682
G1 X15.678 Y134.42 E495.9664
G1 X15.329 Y134.543 E495.98593
G1 X14.991 Y134.694 E496.00547
G1 X14.666 Y134.874 E496.02508
G1 X14.358 Y135.079 E496.04461
G1 X14.068 Y135.31 E496.06417
G1 X13.798 Y135.565 E496.08378
G1 X13.552 Y135.841 E496.10329
G1 X13.328 Y136.137 E496.12288
G1 X13.13 Y136.45 E496.14243
G1 X12.959 Y136.779 E496.162
G1 X12.816 Y137.122 E496.18162
G1 X12.703 Y137.475 E496.20118
G1 X12.619 Y137.834 E496.22064
G1 X12.565 Y138.202 E496.24027
G1 X12.544 Y138.571 E496.25978
G1 X12.55 Y138.941 E496.27931
G1 X12.59 Y139.31 E496.2989
G1 X12.66 Y139.675 E496.31852
G1 X12.761 Y140.032 E496.3381
G1 X12.892 Y140.378 E496.35763
G1 X13.05 Y140.714 E496.37722
G1 X13.237 Y141.034 E496.39679
G1 X13.448 Y141.337 E496.41627
G1 X13.686 Y141.622 E496.43587
G1 X13.945 Y141.887 E496.45543
G1 X14.227 Y142.128 E496.47501
G1 X14.527 Y142.344 E496.49452
G1 X14.845 Y142.536 E496.51413
G1 X15.177 Y142.7 E496.53367
G1 X15.518 Y142.834 E496.55301
G1 X15.701 Y142.893 E496.56316
G1 X16.058 Y142.983 E496.58259
G1 X16.423 Y143.045 E496.60213
G1 X16.792 Y143.075 E496.62167
G1 X17.163 Y143.075 E496.64125
G1 X17.531 Y143.044 E496.66075
G1 X17.898 Y142.981 E496.6804
G1 X18.256 Y142.887 E496.69994
G1 X18.605 Y142.765 E496.71945
G1 X18.943 Y142.613 E496.73901
G1 X19.268 Y142.434 E496.75859
G1 X19.577 Y142.228 E496.7782
G1 X19.866 Y141.997 E496.79772
G1 X20.136 Y141.742 E496.81733
G1 X20.383 Y141.467 E496.83684
G1 X20.607 Y141.171 E496.85643
G1 X20.804 Y140.857 E496.87599
G1 X20.975 Y140.528 E496.89556
G1 X21.118 Y140.187 E496.91508
G1 X21.231 Y139.833 E496.93469
G1 X21.315 Y139.473 E496.95421
G1 X21.369 Y139.106 E496.97378
G1 X21.39 Y138.737 E496.99329
G1 X21.384 Y138.369 E497.01272
G1 X21.367 Y138.178 E497.02284
G1 X21.312 Y137.814 E497.04227
G1 X21.227 Y137.454 E497.06179
G1 X21.112 Y137.101 E497.08139
G1 X20.967 Y136.759 E497.10099
G1 X20.794 Y136.432 E497.12052
G1 X20.595 Y136.12 E497.14005
G1 X20.37 Y135.825 E497.15964
G1 X20.121 Y135.551 E497.17918
G1 X19.85 Y135.297 E497.19878
G1 X19.56 Y135.069 E497.21825
G1 X19.251 Y134.863 E497.23785
G0 F6300 X18.987 Y134.72
G0 X19.033 Y134.632
G0 X20.149 Y135.523
G0 X20.828 Y136.412
G0 X21.265 Y137.444
G0 X21.423 Y138.367
G0 X21.574 Y141.634
G0 X21.602 Y141.729
G1 F900 X21.34 Y141.826 E497.2526
G1 X21.092 Y141.951 E497.26726
G1 X20.862 Y142.107 E497.28193
G1 X20.651 Y142.288 E497.2966
G1 X20.463 Y142.493 E497.31128
G1 X20.301 Y142.72 E497.326
G1 X20.168 Y142.964 E497.34067
G1 X20.066 Y143.217 E497.35507
G1 X20.023 Y143.359 E497.3629
G1 X19.968 Y143.628 E497.37739
G1 X19.946 Y143.905 E497.39205
G1 X19.956 Y144.182 E497.40668
G1 X19.999 Y144.457 E497.42138
G1 X20.076 Y144.726 E497.43614
G1 X20.183 Y144.981 E497.45074
G1 X20.32 Y145.223 E497.46542
G1 X20.485 Y145.448 E497.48014
G1 X20.676 Y145.65 E497.49482
G1 X20.89 Y145.828 E497.50951
G1 X21.122 Y145.979 E497.52412
G1 X21.372 Y146.102 E497.53883
G1 X21.635 Y146.194 E497.55353
G1 X21.906 Y146.253 E497.56817
G1 X22.183 Y146.281 E497.58286
G1 X22.462 Y146.274 E497.5976
G1 X22.736 Y146.235 E497.6122
G1 X23.006 Y146.163 E497.62695
G1 X23.264 Y146.059 E497.64163
G1 X23.507 Y145.926 E497.65626
G1 X23.734 Y145.764 E497.67097
G1 X23.939 Y145.577 E497.68562
G1 X24.12 Y145.367 E497.70025
G1 X24.276 Y145.135 E497.71501
G1 X24.401 Y144.887 E497.72967
G1 X24.498 Y144.626 E497.74436
G1 X24.562 Y144.355 E497.75906
G1 X24.593 Y144.079 E497.77372
G1 X24.591 Y143.799 E497.7885
G1 X24.555 Y143.524 E497.80314
G1 X24.487 Y143.255 E497.81778
G1 X24.387 Y142.995 E497.83249
G1 X24.257 Y142.749 E497.84717
G1 X24.099 Y142.521 E497.86181
G1 X23.915 Y142.313 E497.87647
G1 X23.707 Y142.128 E497.89116
G1 X23.478 Y141.97 E497.90585
G1 X23.232 Y141.84 E497.92053
G1 X22.972 Y141.74 E497.93524
G1 X22.702 Y141.672 E497.94993
G1 X22.427 Y141.637 E497.96456
G1 X22.149 Y141.635 E497.97924
G1 X21.873 Y141.666 E497.9939
G1 X21.602 Y141.729 E498.00858
G0 F6300 X21.34 Y141.826
G0 X21.322 Y141.835
G0 X21.414 Y141.105
;TYPE:SKIN
G1 F900 X21.406 Y141.108 E498.00903
G1 X21.565 Y140.804 E498.02714
G1 X21.728 Y140.411 E498.0496
G1 X21.858 Y140.006 E498.07205
G1 X21.955 Y139.595 E498.09434
G1 X22.017 Y139.172 E498.1169
G1 X22.04 Y138.751 E498.13915
G1 X22.034 Y138.335 E498.16111
G1 X22.013 Y138.1 E498.17357
G1 X21.95 Y137.69 E498.19546
G1 X21.853 Y137.278 E498.2178
G1 X21.722 Y136.873 E498.24027
G1 X21.555 Y136.479 E498.26285
G1 X21.403 Y136.193 E498.27995
G1 X21.63 Y136.258 E498.29241
G1 X21.981 Y136.313 E498.31116
G1 X22.338 Y136.328 E498.33002
G1 X22.692 Y136.296 E498.34878
G1 X23.04 Y136.227 E498.36751
G1 X23.379 Y136.113 E498.38639
G1 X23.701 Y135.961 E498.40518
G1 X24.001 Y135.772 E498.4239
G1 X24.28 Y135.547 E498.44281
G1 X24.527 Y135.291 E498.46159
G1 X24.741 Y135.008 E498.48032
G1 X24.922 Y134.703 E498.49904
G1 X25.066 Y134.378 E498.5178
G1 X25.168 Y134.035 E498.53669
G1 X25.23 Y133.682 E498.5556
G1 X25.248 Y133.327 E498.57436
G1 X25.223 Y132.974 E498.59304
G1 X25.169 Y132.683 E498.60866
G1 X28.08 Y135.595 E498.82599
G1 X28.259 Y135.803 E498.84047
G1 X28.483 Y136.104 E498.86028
G1 X28.652 Y136.371 E498.87695
G1 X28.803 Y136.652 E498.89379
G1 X28.954 Y136.992 E498.91343
G1 X29.043 Y137.237 E498.92719
G1 X29.141 Y137.584 E498.94622
G1 X29.213 Y137.937 E498.96523
G1 X29.247 Y138.206 E498.97954
G1 X29.269 Y138.6 E499.00037
G1 X29.262 Y138.887 E499.01552
G1 X29.231 Y139.23 E499.0337
G1 X29.174 Y139.573 E499.05205
G1 X29.101 Y139.877 E499.06856
G1 X29.006 Y140.173 E499.08496
G1 X28.877 Y140.495 E499.10327
G1 X28.721 Y140.812 E499.12192
G1 X28.57 Y141.07 E499.1377
G1 X28.374 Y141.354 E499.15591
G1 X28.171 Y141.608 E499.17307
G1 X27.928 Y141.869 E499.1919
G1 X25.165 Y144.631 E499.3981
G1 X25.204 Y144.467 E499.407
G1 X25.243 Y144.113 E499.42579
G1 X25.241 Y143.755 E499.44469
G1 X25.195 Y143.402 E499.46348
G1 X25.107 Y143.057 E499.48227
G1 X24.979 Y142.725 E499.50105
G1 X24.813 Y142.411 E499.5198
G1 X24.611 Y142.119 E499.53854
G1 X24.377 Y141.853 E499.55724
G1 X24.109 Y141.616 E499.57612
G1 X23.816 Y141.414 E499.5949
G1 X23.502 Y141.248 E499.61365
G1 X23.168 Y141.12 E499.63253
G1 X22.823 Y141.032 E499.65132
G1 X22.471 Y140.987 E499.67005
G1 X22.115 Y140.985 E499.68884
G1 X21.763 Y141.024 E499.70754
G1 X21.414 Y141.105 E499.72645
G0 F6300 X22.514 Y140.337
G1 F900 X22.435 Y140.337 E499.73062
G1 X22.485 Y140.18 E499.73931
G1 X22.594 Y139.717 E499.76442
G1 X22.664 Y139.237 E499.79002
G1 X22.69 Y138.764 E499.81502
G1 X22.684 Y138.301 E499.83946
G1 X22.659 Y138.022 E499.85425
G1 X22.589 Y137.566 E499.8786
G1 X22.48 Y137.103 E499.9037
G1 X22.437 Y136.971 E499.91103
G1 X22.785 Y136.94 E499.92947
G1 X23.207 Y136.856 E499.95218
G1 X23.622 Y136.717 E499.97528
G1 X24.014 Y136.532 E499.99816
G1 X24.38 Y136.302 E500.02098
G1 X24.72 Y136.028 E500.04402
G1 X25.022 Y135.714 E500.06702
G1 X25.281 Y135.371 E500.0897
G1 X25.501 Y135.002 E500.11238
G1 X25.677 Y134.603 E500.1354
G1 X25.79 Y134.224 E500.15627
G1 X27.605 Y136.04 E500.29179
G1 X27.757 Y136.217 E500.3041
G1 X27.944 Y136.468 E500.32062
G1 X28.086 Y136.693 E500.33466
G1 X28.222 Y136.944 E500.34973
G1 X28.35 Y137.234 E500.36646
G1 X28.422 Y137.431 E500.37753
G1 X28.51 Y137.743 E500.39464
G1 X28.571 Y138.042 E500.41075
G1 X28.599 Y138.268 E500.42277
G1 X28.618 Y138.608 E500.44074
G1 X28.612 Y138.858 E500.45394
G1 X28.586 Y139.145 E500.46915
G1 X28.537 Y139.442 E500.48504
G1 X28.475 Y139.699 E500.49899
G1 X28.392 Y139.959 E500.5134
G1 X28.283 Y140.23 E500.52882
G1 X28.149 Y140.504 E500.54492
G1 X28.022 Y140.72 E500.55814
G1 X27.855 Y140.961 E500.57362
G1 X27.678 Y141.183 E500.5886
G1 X27.468 Y141.409 E500.60489
G1 X25.786 Y143.09 E500.7304
G1 X25.727 Y142.859 E500.74298
G1 X25.572 Y142.455 E500.76582
G1 X25.37 Y142.073 E500.78863
G1 X25.124 Y141.718 E500.81143
G1 X24.838 Y141.393 E500.83428
G1 X24.51 Y141.103 E500.85738
G1 X24.154 Y140.857 E500.88022
G1 X23.771 Y140.655 E500.90308
G1 X23.365 Y140.5 E500.92602
G1 X22.945 Y140.392 E500.94891
G1 X22.514 Y140.337 E500.97184
G0 F6300 X23.562 Y139.88
G1 F900 X23.239 Y139.796 E500.98945
G1 X23.311 Y139.302 E501.0158
G1 X23.34 Y138.778 E501.0435
G1 X23.334 Y138.268 E501.07042
G1 X23.305 Y137.944 E501.08759
G1 X23.239 Y137.512 E501.11066
G1 X23.374 Y137.485 E501.11792
G1 X23.865 Y137.321 E501.14525
G1 X24.327 Y137.103 E501.17221
G1 X24.758 Y136.832 E501.19908
G1 X25.16 Y136.508 E501.22633
G1 X25.517 Y136.137 E501.25351
G1 X25.821 Y135.734 E501.28015
G1 X26.03 Y135.384 E501.30167
G1 X27.13 Y136.484 E501.38378
G1 X27.249 Y136.623 E501.39344
G1 X27.403 Y136.829 E501.40701
G1 X27.522 Y137.018 E501.4188
G1 X27.639 Y137.234 E501.43176
G1 X27.745 Y137.473 E501.44556
G1 X27.803 Y137.633 E501.45455
G1 X27.878 Y137.898 E501.46908
G1 X27.929 Y138.149 E501.4826
G1 X27.951 Y138.325 E501.49196
G1 X27.967 Y138.616 E501.50735
G1 X27.962 Y138.829 E501.51859
G1 X27.941 Y139.061 E501.53089
G1 X27.902 Y139.302 E501.54377
G1 X27.848 Y139.525 E501.55588
G1 X27.781 Y139.736 E501.56757
G1 X27.689 Y139.964 E501.58054
G1 X27.571 Y140.205 E501.59471
G1 X27.476 Y140.368 E501.60467
G1 X27.334 Y140.573 E501.61783
G1 X27.184 Y140.76 E501.63048
